polaris-icons/icons/new-icons/DesktopMajor.svg

<svg width="20" height="20" viewBox="0 0 20 20" fill="none" xmlns="http://www.w3.org/2000/svg">
<path fill-rule="evenodd" clip-rule="evenodd" d="M3.5 6.25C3.5 4.73122 4.73122 3.5 6.25 3.5H13.75C15.2688 3.5 16.5 4.73122 16.5 6.25V10.75C16.5 12.2688 15.2688 13.5 13.75 13.5H12.5V15H13.25C13.6642 15 14 15.3358 14 15.75C14 16.1642 13.6642 16.5 13.25 16.5H6.75C6.33579 16.5 6 16.1642 6 15.75C6 15.3358 6.33579 15 6.75 15H7.5V13.5H6.25C4.73122 13.5 3.5 12.2688 3.5 10.75V6.25ZM9 13.5H11V15H9V13.5ZM6.25 5C5.55964 5 5 5.55964 5 6.25V9.5H15V6.25C15 5.55964 14.4404 5 13.75 5H6.25ZM14.975 11C14.8592 11.5706 14.3547 12 13.75 12H6.25C5.64526 12 5.14082 11.5706 5.025 11H14.975Z" fill="#4A4A4A"/>
</svg>

<svg viewBox="0 0 20 20" xmlns="http://www.w3.org/2000/svg"><path fill-rule="evenodd" d="M3.5 6.25a2.75 2.75 0 0 1 2.75-2.75h7.5a2.75 2.75 0 0 1 2.75 2.75v4.5a2.75 2.75 0 0 1-2.75 2.75h-1.25v1.5h.75a.75.75 0 0 1 0 1.5h-6.5a.75.75 0 0 1 0-1.5h.75v-1.5h-1.25a2.75 2.75 0 0 1-2.75-2.75v-4.5Zm5.5 7.25h2v1.5h-2v-1.5Zm-2.75-8.5c-.69 0-1.25.56-1.25 1.25v3.25h10v-3.25c0-.69-.56-1.25-1.25-1.25h-7.5Zm8.725 6c-.116.57-.62 1-1.225 1h-7.5a1.25 1.25 0 0 1-1.225-1h9.95Z" fill="#5C5F62"/></svg>
